X: 1
T: Whitby Pier
T: Whitby Pear [sic]
R: jig
%D:1770
B: William Vickers music manuscript collection, 1770, p.116
Z: 2020 John Chambers <jc:trillian.mit.edu>
S: https://www.facebook.com/groups/Fiddletuneoftheday/
S: https://www.facebook.com/groups/Fiddletuneoftheday/photos/
M: 6/8
L: 1/8
K: D
A \
| F2A d2e | fed cBA | BdB AFD | FAF E2G |\
| F2A d2e | fed cBA | Bgf edc | d3  D2 :|
|: g \
| faf d2f | gbg e2g | fed faf | ecA A2g |\
| faf d2f | bag fed | Bgf edc | d3  D2 :|
